svg/regular/bx-zoom-in.svg

<svg xmlns="http://www.w3.org/2000/svg" width="24" height="24"><path d="M11 6H9v3H6v2h3v3h2v-3h3V9h-3z"/><path d="M10 2c-4.411 0-8 3.589-8 8s3.589 8 8 8a7.952 7.952 0 0 0 4.897-1.688l4.396 4.396 1.414-1.414-4.396-4.396A7.952 7.952 0 0 0 18 10c0-4.411-3.589-8-8-8zm0 14c-3.309 0-6-2.691-6-6s2.691-6 6-6 6 2.691 6 6-2.691 6-6 6z"/></svg>

<svg xmlns="http://www.w3.org/2000/svg" width="24" height="24" viewBox="0 0 24 24"><path d="M11 6L9 6 9 9 6 9 6 11 9 11 9 14 11 14 11 11 14 11 14 9 11 9z"/><path d="M10,2c-4.411,0-8,3.589-8,8s3.589,8,8,8c1.846,0,3.543-0.635,4.897-1.688l4.396,4.396l1.414-1.414l-4.396-4.396 C17.365,13.543,18,11.846,18,10C18,5.589,14.411,2,10,2z M10,16c-3.309,0-6-2.691-6-6s2.691-6,6-6s6,2.691,6,6S13.309,16,10,16z"/></svg>
